X:1
T:Yesterday, Today, Forever
T:James H. Burke
T:Yesterday, Today, Forever
T:Public Domain
T:Public Domain
T:Public Domain
C:James H. Burke
Z:Public Domain
%%score ( 1 2 ) ( 3 4 )
L:1/8
M:6/8
K:Bb
V:1 treble 
V:2 treble 
V:3 bass 
V:4 bass 
V:1
 [DF]2 [DF] ([DF][B,D])[CE] | [DB]2 [Ec] [Fd]2 [DB] | [EG]2 [GB] [FA]2 [EG] | [DF]6 | %4
w: 1.~O how sweet * the|glor- ious mes- sage|sim- ple faith may|claim|
w: 2.~He, who was * the|friend of sin- ners,|seeks the lost one|now|
w: 3.~Oft on earth * He|healed the suff- erer|by His might- y|hand|
w: 4.~As of old * He|walked to Em- maus,|with them to a-|bide|
 [DF]2 [DF] ([DF][B,D])[DF] | [DB]2 [Ec] [Fd]2 [FB] | [Fc]2 [Fc] (cd)[Fc] | [Fc]6 | %8
w: Yes- ter- day, * to-|day, for- ev- er|Je- sus is * the|Still|
w: Sin- ner come, * and|at His foot- stool|pen- i- tent- * ly|He|
w: Still our sick- * ness-|es and sor- rows|go at His * com-|He|
w: So through all * life’s|way He walk- eth|ev- er near * our|Soon|
 [Fe]2 [Fe] (ed)[Fc] | [Fd]2 [Fd] ([Fd][Ec])[DB] | [EG]2 [GB] [FA]2 [=EG] | F6 | %12
w: He loves to * save|sin- ful, heal * the|sick and lame Cheer|the|
w: Who said “I’ll * not|demn thee, go * and|sin no more,” Speaks|to|
w: who gave His * heal-|vir- tue to * a|wo- man’s touch To|the|
w: a- gain we * shall|hold Him, Hast- * en|Lord the day But|twill|
 [DF]2 [DF] ([DF][B,D])[DF] | [DB]2 [Ec] [Fd]2 [FB] | [Gc]2 [Gc] [FB]2 [EA] | [DB]6 || %16
w: er, still the * tem-|pest, glo- ry to|His Name. * *||
w: that word of * par-|don as in days|of yore. * *||
w: that claims His * full-|ness still will give|as much. Yes- ter-|day,|
w: be this same * Je-|sus as He went|a- way. * *||
"^Refrain" [Fd]2 [Fd] ([Fd][Ec])[DB] | [GB]2 [GB] (cB)[EG] | [DF]2 [DB] ([DB][Ec])[Fd] | [Fc]6 | %20
w: ||||
w: ||||
w: to- day, for- * ev-|er, Je- sus * is|same. All may * change,|but|
w: ||||
 [Fd]2 [Fd] ([Fd][Ec])[DB] | [GB]2 [GB] (cB)[EG] | [DF]2 [Fe] [Fd]2 [Ec] | [DB]6 | %24
w: ||||
w: ||||
w: Je- sus nev- * er!|Glo- ry to * His|Glo- ry to His|name!|
w: ||||
 [DB]2 [DF] [EG]2 [EA] | [DB]6 | [Fd]2 [Fd] ([Fd][Ge])[Fd] | [Fc]6 | [Ff]2 [Fd] (dc)[FB] | %29
w: |||||
w: |||||
w: Glo- ry to His|name!|All may change, * but|Je-|sus nev- er! * Glo-|
w: |||||
 [GB]2 [GB] [GB] [_Ge]2 | [Fd]2 [DB] [Ec]2 [EA] | [DB]6 |] %32
w: |||
w: |||
w: to His name! *|||
w: |||
V:2
 x6 | x6 | x6 | x6 | x6 | x6 | x3 F2 x | x6 | x3 F2 x | x6 | x6 | F6 | x6 | x6 | x6 | x6 || x6 | %17
w: ||||||same.||the|||mourn-||||||
w: ||||||bow||con-|||thee||||||
w: ||||||mand||ing|||faith||||||
w: ||||||side||be-|||still||||||
 x3 G2 x | x6 | x6 | x6 | x3 G2 x | x6 | x6 | x6 | x6 | x6 | x6 | x3 F2 x | x6 | x6 | x6 |] %32
w: |||||||||||||||
w: |||||||||||||||
w: the||||name!|||||||ry||||
w: |||||||||||||||
V:3
 [B,,F,]2 [B,,F,] [B,,F,] [B,,F,]2 | [B,,F,]2 [B,,F,] [B,,B,]2 [B,,B,] | %2
 [E,B,]2 [E,B,] [E,B,]2 [E,B,] | [B,,B,]6 | [B,,B,]2 [B,,B,] [B,,B,]2 [B,,B,] | %5
 [B,,B,]2 [B,,B,] [B,,B,]2 [D,B,] | [F,A,]2 [F,A,] (A,B,)[F,A,] | [F,A,]6 | %8
 [F,A,]2 [F,A,] (A,B,)[F,A,] | [B,,B,]2 [B,,B,] [B,,B,]2 [B,,B,] | [E,B,]2 [E,B,] [C,C]2 [C,B,] | %11
 [F,A,]6 | [B,,B,]2 [B,,B,] [B,,B,]2 [B,,B,] | [B,,B,]2 [B,,B,] [B,,B,]2 [D,B,] | %14
 [E,B,]2 [E,E] [F,D]2 [F,C] | [B,,B,]6 || [B,,B,]2 [B,,B,] [B,,B,]2 [B,,B,] | %17
 [E,B,]2 [E,B,] [E,B,]2 [E,B,] | [B,,B,]2 [B,,B,] [B,,B,]2 [B,,B,] | [F,A,]6 | %20
 [B,,B,]2 [B,,B,] [B,,B,]2 [B,,B,] | [E,B,]2 [E,B,] [E,B,]2 [E,B,] | [F,B,]2 [F,A,] [F,B,]2 F, | %23
 [B,,F,]6 | [B,,F,]2 [B,,B,] [E,B,]2 [C,F,] | [B,,F,]6 | [B,,F,]2 [B,,F,] [B,,B,]2 [B,,B,] | %27
 [F,A,]6 | [D,A,]2 [B,,B,] ([B,,B,][C,A,])[D,B,] | [E,B,]2 [E,B,] [E,B,] [C,B,]2 | %30
 [F,B,]2 [F,B,] [F,A,]2 [F,C] | [B,,B,]6 |] %32
V:4
 x6 | x6 | x6 | x6 | x6 | x6 | x3 F,2 x | x6 | x3 F,2 x | x6 | x6 | x6 | x6 | x6 | x6 | x6 || x6 | %17
 x6 | x6 | x6 | x6 | x6 | x6 | x6 | x6 | x6 | x6 | x6 | x6 | x6 | x6 | x6 |] %32

